X:1
T:James Gibb editions
T:Salve Regina - Soriano
T:#
%%score [ 1 2 3 4 ]
L:1/8
Q:1/4=100
M:none
K:C
V:1 treble nm="Soprano" snm="S"
V:2 treble nm="Alto" snm="A"
V:3 treble-8 nm="Tenor" snm="T"
V:4 bass nm="Bass" snm="B"
V:1
 x8 x2 || %1
w: |
[M:4/4]"^Salve Regina"!mf!"^,""^,""^Francesco Soriano\n(1549-1621)""^allegro moderato" A16 | %2
w: Regina,~mater~misericordiae,~vita,~dulcedo|
 B4 c2 !>!A2- | A2"^," A2!>(! A4!>)! | !fermata!A8 ||[M:4/4]"^," A8 | A4 A2 A2 | A8 |!>(! A8!>)! | %9
w: et spes no\-|* ~stra, sal-|ve.|Ad~te~clamamus,~exules|fi- li- i|E-|vae.|
!f!"^,""^," A16 | G8 | F6 E2 |!>(! D8!>)! | ^C8 |!p!!<(! E8!<)! | F3 F F2 G2 | A4 A4 | %17
w: Ad~te~suspiramus,~gementes~et~flentes|in~hac~lacri-|ma- rum|val-|le.|Eja~ergo,|ad- vo- ca- ta|no- stra,|
[M:4/4]!mf! A16 | _B4!<(! A2 A2 | G8!<)! |!>(! ^F8!>)! |!p!"^," =F16 | F16 |!<(! G4"^," G2!<)! G2 | %24
w: illos~tuos~misericordes~oculos|ad nos con-|ver-|te.|Et~Jesum,~benedictum|fructum~ventris~tui,|no- bis post|
 G2 G2 G3 G | G2 G2!>(! A4!>)! | A8 |!p! A4!<(! A4-!<)! |!>(! A4 A4!>)! |!p! E4!<(! F4-!<)! | %30
w: hoc e- xi- li-|um o- sten-|de.|O cle\-|* mens,|O pi\-|
 F4!>(! E4!>)! |!mf! A4 A2 A2 | G2 E2 (F2 E2- | ED) (!>!D4 ^C2) | !fermata!D8 |] %35
w: * a,|O dul- cis|vir- go Ma\- *|* * ri\- *|a.|
V:2
 x8 x2 ||[M:4/4]!mf!"^,""^," ^F16 | G4 G2 !courtesy!=F2- | F2"^," F2!>(! E4!>)! | !fermata!^F8 || %5
w: |Regina,~mater~misericordiae,~vita,~dulcedo|et spes no\-|* stra, sal-|ve.|
[M:4/4]"^," E8 | =F4 F2 F2 | (F4 E4) |!>(! E8!>)! |!f!"^,""^," F16 | E8 | D2 A,2 (_B,A, A,2- | %12
w: Ad~tu~clamamus,~exules|fi- li- i|E- *|vae.|Ad~te~suspiramus,~gementes~et~flentes|in~hac~lacri-|ma- rum val\- * *|
!>(! A,4 G,4)!>)! | A,8 |!p!!<(! ^C8!<)! | D3 D D2 E2 | F4 F4 |[M:4/4]!mf! F16 | F4!<(! F2 F2 | %19
w: |le.|Eja~ergo,|ad- vo- ca- ta|no- stra,|illos~tuos~misericordes~oculos|ad nos con-|
 D8!<)! |!>(! D8!>)! |!p!"^," D16 | C16 |!<(! E4"^," E2!<)! D2 | E2 E2 E3 E | E2 D2!>(! E4!>)! | %26
w: ver-|te.|Et~Jesum,~benedictum|fructum~ventris~tui,|no- bis post|hoc e- xi- li-|um o- sten-|
 E8 |!p! E4!<(! F4-!<)! |!>(! F4 E4!>)! |!p! ^C4!<(! D4-!<)! | D4!>(! ^C4!>)! |!mf! F4 F2 F2 | %32
w: de.|O cle\-|* mens,|O pi\-|* a,|O dul- cis|
 (ED!courtesy!=C_B, A,B, C2) | _B,2 G,2 !>!A,4 | !fermata!A,8 |] %35
w: vir\- * * * * * *|go Ma- ri-|a.|
V:3
 x8 x2 ||[M:4/4]!mf!"^,""^," d16 | d4 e2 c2- | cA (d4!>(! ^c2)!>)! | !fermata!d8 || %5
w: |Regina,~mater~misericordiae,~vita,~dulcedo|et spes no\-|* stra, sal\- *|ve.|
[M:4/4][K:treble-8]"^," ^c8 | d4 d2 d2 | (d4 ^c4) |!>(! ^c8!>)! |!f!"^,""^," =c16 | c8 | %11
w: Ad~te~clamamus,~exules|fi- li- i|E- *|vae.|Ad~te~suspiramus,~gementes~et~flentes|in~hac~lacri-|
 (AGFE D2) E2 |!>(! (F4 D4)!>)! | E8 |!p!!<(! A8!<)! | A3 A A2 c2 | c4 c4 | %17
w: ma\- * * * * rum|va\- *|le.|Eja~ergo,|ad- vo- ca- ta|no- stra,|
[M:4/4][K:treble-8]!mf! c16 | d4!<(! c2 c2 | _B8!<)! |!>(! A8!>)! |!p!"^," A16 | A16 | %23
w: illos~tuos~misericordes~oculos|ad nos con-|ver-|te.|Et~Jesum,~benedictum|fructum~ventris~tui,|
!<(! c4"^," c2!<)! !courtesy!=B2 | c2 G2 c3 c | c2 d4!>(! (^cB)!>)! | ^c8 |!p! ^c4!<(! d4-!<)! | %28
w: no- bis post|hoc e- xi- li-|um o- sten\- *|de.|O cle-|
!>(! !tenuto!d4 ^c4!>)! |!p! A4!<(! A4!<)! | A4!>(! A4!>)! |!mf! =c4 c2 c2 | c2 G2 (F2 G2 | %33
w: * mens,|O pi\-|* a,|O dul- cis|vir- go Ma\- *|
 GFED) !>!E4 | !fermata!^F8 |] %35
w: * * * * ri-|a.|
V:4
 A,2 G,2 A,2 D,4 ||[M:4/4]!mf!"^,""^," D,16 | G,4 C,2 F,2- | F,2"^," D,2!>(! A,4!>)! | %4
w: Sal\- * * ve|Regina,~mater~misericordiae,~vita,~dulcedo|et spes no\-|* stra, sal-|
 !fermata!D,8 ||[M:4/4]"^," A,8 | D,4 D,2 D,2 | (D,4 A,4) |!>(! A,8!>)! |!f!"^,""^," F,16 | C,8 | %11
w: ve.|Ad~te~clamamus,~exules|fi- li- i|E- *|vae.|Ad~te~suspiramus,~gementes~et~flentes|in~hac~lacri-|
 D,6 C,2 |!>(! _B,,8!>)! | A,,8 |!p!!<(! A,,8!<)! | D,3 D, D,2 C,2 | F,4 F,4 |[M:4/4]!mf! F,16 | %18
w: ma rum|val-|le.|Eja~ergo,|ad- vo- ca- ta|no- stra,|illos~tuos~misericordes~oculos|
 _B,,4!<(! F,2 F,2 | G,8!<)! |!>(! D,8!>)! |!p!"^," D,16 | F,16 |!<(! C,4"^," C,2!<)! G,2 | %24
w: ad nos con-|ver-|te.|Et~Jesum,~benedictum|fructum~ventris~tui,|no- bis post|
 C,2 C,2 C,3 C, | C,2 _B,,2!>(! A,,4!>)! | A,,8 |!p! A,4!<(! D,4-!<)! |!>(! D,4 A,4!>)! | %29
w: hoc e- xi- li-|um o- sten-|de.|O cle-|* mens,|
!p! A,,4!<(! D,4-!<)! | D,4!>(! A,,4!>)! |!mf! F,4 F,2 F,2 | C,4 D,2 C,2 | (G,,2 _B,,2 A,,4) | %34
w: O pi\-|* a,|O dul- cis|vir- go Ma-|ri\- * *|
 !fermata!D,8 |] %35
w: a.|

